cached_logos/linux-kit.svg

<svg xmlns="http://www.w3.org/2000/svg" role="img" viewBox="-1.92 -1.92 99.71 26.71"><title>LinuxKit logo</title><g fill="none" fill-rule="evenodd"><path fill="#000" d="M37 16h-6v3h9V4h-3v12zM57 0h39v23H57V0zm4 4v14.996h3.381v-4.025l1.748-2.3 3.657 6.325h3.703L68.13 9.98 72.661 4h-3.726l-4.462 6.141h-.092V4H61zm14.122 0v14.996h3.381V4h-3.381zm9.844 2.852v12.144h3.404V6.852h4.117V4H80.849v2.852h4.117zM0 4h3v15H0V4zm9 0h3v3H9V4zm0 5h3v10H9V9zm-6 7h4v3H3v-3zM14 4h12v3H14V4zm9 3h3v12h-3V7zm-9 0h3v12h-3V7zm14-3h3v15h-3V4zm14 0h3v6h-3V4zm3 6h6v3h-6v-3zm6-6h3v6h-3V4zm0 9h3v6h-3v-6zm-9 0h3v6h-3v-6z"/></g></svg>

<?xml version="1.0" encoding="UTF-8"?>
<svg   viewBox="-1.9200000000000017 -0.46000000000000085 99.84 23.92" version="1.1" xmlns="http://www.w3.org/2000/svg" xmlns:xlink="http://www.w3.org/1999/xlink">
    <!-- Generator: Sketch 43.1 (39012) - http://www.bohemiancoding.com/sketch -->
    <title>linux-kit@3x</title>
    <desc>Created with Sketch.</desc>
    <defs></defs>
    <g id="Page-1" stroke="none" stroke-width="1" fill="none" fill-rule="evenodd">
        <path d="M37,16 L31,16 L31,19 L38.5,19 L40,19 L40,4 L37,4 L37,16 Z M57,0 L96,0 L96,23 L57,23 L57,0 Z M61,4 L61,18.996 L64.381,18.996 L64.381,14.971 L66.129,12.671 L69.786,18.996 L73.489,18.996 L68.13,9.98 L72.661,4 L68.935,4 L64.473,10.141 L64.381,10.141 L64.381,4 L61,4 Z M75.122,4 L75.122,18.996 L78.503,18.996 L78.503,4 L75.122,4 Z M84.966,6.852 L84.966,18.996 L88.37,18.996 L88.37,6.852 L92.487,6.852 L92.487,4 L80.849,4 L80.849,6.852 L84.966,6.852 Z M0,4 L3,4 L3,19 L0,19 L0,4 Z M9,4 L12,4 L12,7 L9,7 L9,4 Z M9,9 L12,9 L12,19 L9,19 L9,9 Z M3,16 L7,16 L7,19 L3,19 L3,16 Z M14,4 L26,4 L26,7 L14,7 L14,4 Z M23,7 L26,7 L26,19 L23,19 L23,7 Z M14,7 L17,7 L17,19 L14,19 L14,7 Z M28,4 L31,4 L31,19 L28,19 L28,4 Z M42,4 L45,4 L45,10 L42,10 L42,4 Z M45,10 L51,10 L51,13 L45,13 L45,10 Z M51,4 L54,4 L54,10 L51,10 L51,4 Z M51,13 L54,13 L54,19 L51,19 L51,13 Z M42,13 L45,13 L45,19 L42,19 L42,13 Z" id="linux-kit" fill="#000000"></path>
    </g>
</svg>
